images/profile/Edit Button.svg

<svg width="18" height="18" viewBox="0 0 18 18" fill="none" xmlns="http://www.w3.org/2000/svg">
<rect x="0.5" y="0.5" width="17" height="17" stroke="white"/>
<path d="M12.75 6.2462L7.20283 11.825L6.21226 10.8145L11.7453 5.25L12.75 6.2462ZM5.25 12.75L6.7217 12.3088L5.68868 11.3126L5.25 12.75Z" fill="white"/>
</svg>

<svg width="18" height="18" fill="none" xmlns="http://www.w3.org/2000/svg"><path stroke="#fff" d="M.5.5h17v17H.5z"/><path d="M12.75 6.246l-5.547 5.579-.99-1.01 5.532-5.565 1.005.996zm-7.5 6.504l1.472-.441-1.033-.996-.439 1.437z" fill="#fff"/></svg>
